components/ui-node-icon/src/snowflakeOutput/snowflakeOutput.large.svg

<svg width="32" height="32" viewBox="0 0 32 32" fill="none" xmlns="http://www.w3.org/2000/svg">
  <path fill-rule="evenodd" clip-rule="evenodd" d="M11.8211 12.1049L5.89595 8.69302C5.06354 8.21243 4.77599 7.15061 5.25777 6.32027C5.73955 5.48993 6.80402 5.2056 7.63642 5.68619L11.0014 7.62365V3.73113C11.0014 2.77498 11.7783 2 12.7368 2C13.6928 2 14.4697 2.77498 14.4697 3.73113V10.5701C14.4697 11.0733 14.2553 11.5262 13.9097 11.8433C13.3649 12.3742 12.5123 12.505 11.8211 12.1049ZM11.3267 16.0226C11.3368 15.4062 11.0114 14.8325 10.4767 14.523L4.55149 11.1111C4.2942 10.9626 3.99908 10.8846 3.70395 10.8846C3.09604 10.8846 2.53102 11.2092 2.22833 11.7325C1.75916 12.5428 2.03915 13.5819 2.85137 14.0499L6.26674 16.0151L2.85137 17.9827C2.45787 18.2092 2.17536 18.574 2.05933 19.0118C1.94077 19.4496 2.00131 19.9076 2.22833 20.3001C2.53102 20.8235 3.09604 21.1481 3.70143 21.1481C3.99908 21.1481 4.2942 21.0701 4.55149 20.9216L10.4767 17.5097C11.0064 17.2027 11.3318 16.6341 11.3267 16.0226ZM21.0021 28.3209C20.9757 29.2517 20.2092 29.9999 19.2699 29.9999C18.3113 29.9999 17.5344 29.2249 17.5344 28.2713V21.5984C17.4991 21.2487 17.5723 20.8889 17.7589 20.5618C18.2407 19.7314 19.3052 19.4471 20.1376 19.9252L21.6938 20.8219C22.4211 20.0724 23.3425 19.5121 24.3769 19.2221L21.462 17.5424C20.8995 17.2203 20.5867 16.629 20.5917 16.0226C20.5817 15.4137 20.8944 14.8149 21.462 14.4878L27.3872 11.0758C28.2196 10.5952 29.2866 10.8796 29.7658 11.7124C30.2476 12.5428 29.9626 13.6046 29.1277 14.0827L25.7728 16.0151L29.1277 17.9475C29.9601 18.4281 30.2476 19.4899 29.7658 20.3202L29.7625 20.326C31.127 21.4258 32 23.111 32 25C32 28.3137 29.3137 31 26 31C23.9144 31 22.0773 29.9359 21.0021 28.3209ZM19.2195 16.2994C19.2195 16.4303 19.1438 16.6114 19.0505 16.707L16.7021 19.0496C16.6087 19.1427 16.4246 19.2182 16.2934 19.2182H15.6956C15.5645 19.2182 15.3803 19.1427 15.287 19.0496L12.9361 16.707C12.8427 16.6114 12.7671 16.4303 12.7671 16.2994V15.7031C12.7671 15.5697 12.8427 15.3886 12.9361 15.2955L15.287 12.9504C15.3803 12.8573 15.5645 12.7818 15.6956 12.7818H16.2934C16.4246 12.7818 16.6087 12.8573 16.7021 12.9504L19.0505 15.2955C19.1438 15.3886 19.2195 15.5697 19.2195 15.7031V16.2994ZM17.1233 16.0126V15.9874C17.1233 15.8918 17.0678 15.7584 16.9997 15.688L16.306 14.9986C16.2379 14.9281 16.1042 14.8727 16.0059 14.8727H15.9807C15.8848 14.8727 15.7511 14.9281 15.6805 14.9986L14.9893 15.688C14.9212 15.7559 14.8657 15.8893 14.8657 15.9874V16.0126C14.8657 16.1107 14.9212 16.2441 14.9893 16.312L15.6805 17.0039C15.7511 17.0719 15.8848 17.1272 15.9807 17.1272H16.0059C16.1042 17.1272 16.2379 17.0719 16.306 17.0039L16.9997 16.312C17.0678 16.2441 17.1233 16.1107 17.1233 16.0126ZM26.0627 8.69302L20.1375 12.1049C19.3051 12.5855 18.2406 12.3012 17.7588 11.4709C17.5696 11.1438 17.5015 10.7814 17.5343 10.4342V3.73113C17.5343 2.77498 18.3112 2 19.2698 2C20.2258 2 21.0027 2.77498 21.0027 3.73113V7.59848L24.3222 5.68619C25.1546 5.2056 26.2191 5.48993 26.7008 6.32027C27.1826 7.15061 26.8951 8.21495 26.0627 8.69302ZM13.0092 19.7238C12.6157 19.6483 12.1945 19.7112 11.8211 19.9251L5.89595 23.3395C5.06354 23.8176 4.77599 24.8794 5.25777 25.7098C5.73955 26.5426 6.80402 26.827 7.63642 26.3464L11.0014 24.4089V28.2712C11.0014 29.2249 11.7783 29.9999 12.7368 29.9999C13.6928 29.9999 14.4697 29.2249 14.4697 28.2712V21.4323C14.4697 20.5692 13.8366 19.8546 13.0092 19.7238ZM26 30C28.7614 30 31 27.7614 31 25C31 22.2386 28.7614 20 26 20C23.2386 20 21 22.2386 21 25C21 27.7614 23.2386 30 26 30ZM26 22C26.2761 22 26.5 22.2239 26.5 22.5V26.7929L27.6464 25.6464C27.8417 25.4512 28.1583 25.4512 28.3536 25.6464C28.5488 25.8417 28.5488 26.1583 28.3536 26.3536L26.3536 28.3536C26.1583 28.5488 25.8417 28.5488 25.6464 28.3536L23.6464 26.3536C23.4512 26.1583 23.4512 25.8417 23.6464 25.6464C23.8417 25.4512 24.1583 25.4512 24.3536 25.6464L25.5 26.7929V22.5C25.5 22.2239 25.7239 22 26 22Z" fill="var(--tbl--colors--brand--snowflake)"/>
</svg>

<svg xmlns="http://www.w3.org/2000/svg" width="32" height="32" fill="none" viewBox="0 0 32 32">
  <path fill="var(--tbl--colors--brand--snowflake)" fill-rule="evenodd" d="M11.821 12.105 5.896 8.693a1.735 1.735 0 0 1-.638-2.373 1.743 1.743 0 0 1 2.378-.634l3.365 1.938V3.73c0-.956.777-1.731 1.736-1.731.956 0 1.733.775 1.733 1.731v6.84c0 .502-.215.955-.56 1.272a1.744 1.744 0 0 1-2.089.262Zm-.494 3.918a1.701 1.701 0 0 0-.85-1.5L4.55 11.111a1.703 1.703 0 0 0-2.323.621c-.469.81-.189 1.85.623 2.318l3.416 1.965-3.416 1.968a1.677 1.677 0 0 0-.792 1.029 1.68 1.68 0 0 0 .17 1.288 1.706 1.706 0 0 0 2.322.622l5.926-3.412c.53-.307.855-.876.85-1.487Zm9.675 12.298A1.732 1.732 0 0 1 19.27 30a1.733 1.733 0 0 1-1.736-1.729v-6.673c-.035-.35.038-.71.225-1.036a1.746 1.746 0 0 1 2.379-.637l1.556.897a5.997 5.997 0 0 1 2.683-1.6l-2.915-1.68a1.732 1.732 0 0 1-.87-1.52 1.738 1.738 0 0 1 .87-1.534l5.925-3.412c.833-.48 1.9-.196 2.379.636a1.73 1.73 0 0 1-.638 2.37l-3.355 1.933 3.355 1.933c.832.48 1.12 1.542.638 2.372l-.003.006a6 6 0 1 1-8.76 7.995ZM19.22 16.299a.67.67 0 0 1-.17.408l-2.348 2.343a.667.667 0 0 1-.409.168h-.597a.667.667 0 0 1-.409-.168l-2.35-2.343a.669.669 0 0 1-.17-.408v-.596c0-.133.076-.314.17-.407l2.35-2.346a.667.667 0 0 1 .409-.168h.597c.132 0 .316.075.41.168l2.348 2.346a.658.658 0 0 1 .169.407v.596Zm-2.097-.286v-.026a.496.496 0 0 0-.123-.299l-.694-.69a.475.475 0 0 0-.3-.125h-.025a.486.486 0 0 0-.3.126l-.692.689a.484.484 0 0 0-.123.3v.025c0 .098.055.231.123.299l.691.692c.071.068.205.123.3.123h.026a.486.486 0 0 0 .3-.123l.694-.692a.484.484 0 0 0 .123-.3Zm8.94-7.32-5.925 3.412a1.736 1.736 0 0 1-2.603-1.67V3.73c0-.956.776-1.731 1.735-1.731.956 0 1.733.775 1.733 1.731v3.867l3.32-1.912a1.743 1.743 0 0 1 2.378.634c.482.83.194 1.895-.638 2.373Zm-13.054 11.03a1.73 1.73 0 0 0-1.188.202L5.896 23.34a1.731 1.731 0 0 0-.638 2.37 1.742 1.742 0 0 0 2.378.636l3.365-1.937v3.862c0 .954.777 1.729 1.736 1.729.956 0 1.733-.775 1.733-1.729v-6.839c0-.863-.633-1.577-1.46-1.708ZM26 30a5 5 0 1 0 0-10 5 5 0 0 0 0 10Zm0-8a.5.5 0 0 1 .5.5v4.293l1.146-1.147a.5.5 0 0 1 .708.708l-2 2a.5.5 0 0 1-.708 0l-2-2a.5.5 0 0 1 .708-.708l1.146 1.147V22.5a.5.5 0 0 1 .5-.5Z" clip-rule="evenodd"/>
</svg>
